X:1
T:Title
%%score { ( 1 3 ) | ( 2 4 ) }
L:1/8
M:4/4
K:Bb
V:1 treble nm="Grand Piano"
V:3 treble 
V:2 bass 
V:4 bass 
V:1
 z4 z2[Q:1/4=100] [DB][Ec] | [Fd][Fd][Fd][Ec] [DB][DB][EA][FB] |[M:3/4] [Gc][GB] [FA][EG] [DF]2 | %3
[M:1/4] [DF][DF] |[M:4/4] BBBB [=EB][EB][EA][EB] | c6 z2 | [Fd][Fd][Fd][Ec] [DB][DB][EA][FB] | %7
 [Gc][GB][FA][EG] [DF]2 [DF][DF] | [EG][EG][FA][FB] [=Ec][Ec][_EF][EF] |[M:3/4] [DB]6 | %10
[M:1/4] [DB][DB] |[M:4/4] c6 z2 |[M:3/4] [DF]2 [DB]4 |[M:1/4] [DB][DB] |[M:4/4] c6 z2 | d6 z2 | %16
 f6 z2 | [FA]2 [EG]4 [Ge][Ge] | d3 B d2 c2 |[M:3/4] B6 |] %20
V:2
 z4 z2 [B,,F,][B,,F,] | [B,,B,][B,,B,][B,,B,][B,,F,] [B,,F,][B,,F,][C,F,][D,B,] | %2
[M:3/4] [E,B,][E,B,] [E,B,][E,B,] [B,,B,]2 |[M:1/4] [B,,B,][B,,B,] | %4
[M:4/4] [G,B,D][G,B,D][G,B,D][G,B,D] [C,G,][C,G,][C,C][C,B,] | [F,A,F]6 [D,B,][C,A,] | %6
 [B,,B,][B,,B,][B,,B,][B,,F,] [B,,F,][B,,F,][C,F,][D,B,] | %7
 [E,B,][E,B,][E,B,][E,B,] [B,,B,]2 [B,,B,][B,,B,] | %8
 [E,B,][E,B,][E,C][D,B,] [C,B,][C,B,][F,A,][F,A,] |[M:3/4] [B,,B,]6 |[M:1/4] [B,,F,][B,,F,] | %11
[M:4/4] [F,A,E][F,A,][F,A,][F,A,] [F,A,][F,A,E][F,B,E][F,A,E] |[M:3/4] [B,,B,]2 [B,,F,]4 | %13
[M:1/4] [B,,F,][B,,F,] |[M:4/4] [F,A,F][F,A,][F,A,][F,A,] [F,A,][K:treble][F,CF][F,B,F][F,A,F] | %15
 [B,F]2 B,B, B,2 [B,F][B,CF] | [B,DB][K:bass][B,D][B,D][B,D] [B,D][D,B,][D,B,][D,B,] | %17
 [F,B,]2 [E,B,]4 [E,B,][E,B,] | [F,B,F]3 [F,B,D] [F,B,F]2 [F,A,E]2 |[M:3/4] z F, G,G, F,2 |] %20
V:3
 x8 | x8 |[M:3/4] x6 |[M:1/4] x2 |[M:4/4] x8 | z4 z E,[FB][Fc] | x8 | x8 | x8 |[M:3/4] x6 | %10
[M:1/4] x2 |[M:4/4] z EEE EFGF |[M:3/4] x6 |[M:1/4] x2 |[M:4/4] z FFF Fedc | z2 FF F2 de | %16
 z BBB B[FB][FB][FB] | x8 | x8 |[M:3/4] [B,D]D EE D2 |] %20
V:4
 x8 | x8 |[M:3/4] x6 |[M:1/4] x2 |[M:4/4] x8 | x8 | x8 | x8 | x8 |[M:3/4] x6 |[M:1/4] x2 | %11
[M:4/4] x8 |[M:3/4] x6 |[M:1/4] x2 |[M:4/4] x5[K:treble] x3 | x8 | x[K:bass] x7 | x8 | x8 | %19
[M:3/4] B,,6 |] %20

